packages/icons/web/cloud_download_large.svg

<svg width="24" height="24" viewBox="0 0 24 24" fill="none" xmlns="http://www.w3.org/2000/svg">
<path d="M17 17H18.0329C18.0329 17 21.2504 17.0513 21.2504 13.7861C21.262 13.3183 21.1708 12.8539 20.9837 12.427C20.7965 12.0002 20.5181 11.6219 20.169 11.32C19.8199 11.0181 19.409 10.8004 18.9667 10.6829C18.5244 10.5654 18.062 10.5512 17.6136 10.6413C17.5586 9.1447 16.9464 7.72639 15.9026 6.67738C14.8587 5.62837 13.4624 5.02819 12.0002 5C10.9198 5.01119 9.86562 5.34123 8.96388 5.95055C8.06214 6.55987 7.35118 7.4226 6.91624 8.43529C6.36534 8.42485 5.81804 8.52846 5.3072 8.7399C4.79635 8.95135 4.33248 9.26628 3.9434 9.6658C3.55432 10.0653 3.24806 10.5412 3.04298 11.0649C2.8379 11.5886 2.73823 12.1493 2.74995 12.7134C2.74392 13.7556 3.10753 14.7647 3.77323 15.553C4.43894 16.3414 5.36147 16.8556 6.36945 17H7" stroke="#212933" stroke-width="2" stroke-linecap="round" stroke-linejoin="round"/>
<path d="M12 13V20M12 20L14 17.8571M12 20L10 17.8571" stroke="#212933" stroke-width="1.75" stroke-linecap="round" stroke-linejoin="round"/>
</svg>

<svg width="24" height="24" fill="none" xmlns="http://www.w3.org/2000/svg">
    <path d="M17 17h1.033s3.217.051 3.217-3.214a3.19 3.19 0 00-.266-1.359 3.119 3.119 0 00-.815-1.107c-.35-.302-.76-.52-1.202-.637a2.98 2.98 0 00-1.353-.042 5.929 5.929 0 00-1.711-3.964A5.66 5.66 0 0012 5a5.523 5.523 0 00-3.036.95 5.718 5.718 0 00-2.048 2.485 4.007 4.007 0 00-1.609.305 4.08 4.08 0 00-1.364.926 4.2 4.2 0 00-.9 1.399 4.279 4.279 0 00-.293 1.648 4.364 4.364 0 001.023 2.84A4.175 4.175 0 006.37 17H7" stroke="currentColor" stroke-width="2" stroke-linecap="round" stroke-linejoin="round"/>
    <path d="M12 13v7m0 0l2-2.143M12 20l-2-2.143" stroke="currentColor" stroke-width="1.75" stroke-linecap="round" stroke-linejoin="round"/>
</svg>
